src/icons/icons_set_01/044-enveloppe.svg

<svg height="50" viewBox="0 0 50 50" width="50" xmlns="http://www.w3.org/2000/svg"><path d="m45.1735564 38.2565677-.0796013.0734949c.0135198-.0115037.0135198-.0115037.0080744-.0067189-.0256593.023307-.0256593.023307-.0217973.0178099-.4478994.4104118-1.0370136.633687-1.7054975.633687h-35.85094899c-1.35757885 0-2.52378571-1.06241-2.52378571-2.3868069v-22.2012269c0-1.3257674 1.16678983-2.3868068 2.52378571-2.3868068h35.85094899c1.3573798 0 2.5233877 1.0622289 2.5233877 2.3868068v22.2012269c0 .6759622-.2709059 1.2645857-.7109025 1.6564637-.0213784.0206992-.0213784.0206992-.0336426.0320367-.0002104.0000662.0054178-.0055183.0199791-.0199664zm-1.3916596-1.4357209c.0033829-.003168.0068397-.0063304.0117198-.0107947l.0036088-.0033172c-.0025805.0023611-.0025805.0023611.0212137-.0196519.0569826-.0509579.0796833-.1002821.0796833-.1990493v-22.2012269c0-.1762539-.2311237-.3868068-.5233877-.3868068h-35.85094899c-.29259085 0-.52378571.2102408-.52378571.3868068v22.2012269c0 .1760729.23132258.3868069.52378571.3868069h35.85094899c.1590051 0 .2608949-.0333489.390732-.1380995.0034959-.003448.0063175-.0062125.0087923-.0086109.0006383-.0010652.0039987-.0040845.0076378-.0072834zm-6.8425966-18.6075429 1.2346809 1.5733922-13.1881721 10.3490944-12.6204089-10.3629497 1.2691998-1.5456816 11.3795911 9.3440815z"/></svg>

<?xml version="1.0" encoding="UTF-8"?>
<svg width="50px" height="50px" viewBox="0 0 50 50" version="1.1" xmlns="http://www.w3.org/2000/svg" xmlns:xlink="http://www.w3.org/1999/xlink">
    <!-- Generator: Sketch 52.4 (67378) - http://www.bohemiancoding.com/sketch -->
    <title>044-enveloppe</title>
    <desc>Created with Sketch.</desc>
    <g id="044-enveloppe" stroke="none" stroke-width="1" fill="none" fill-rule="evenodd">
        <path d="M45.1735564,38.2565677 L45.0939551,38.3300626 C45.1074749,38.3185589 45.1074749,38.3185589 45.1020295,38.3233437 C45.0763702,38.3466507 45.0763702,38.3466507 45.0802322,38.3411536 C44.6323328,38.7515654 44.0432186,38.9748406 43.3747347,38.9748406 L7.52378571,38.9748406 C6.16620686,38.9748406 5,37.9124306 5,36.5880337 L5,14.3868068 C5,13.0610394 6.16678983,12 7.52378571,12 L43.3747347,12 C44.7321145,12 45.8981224,13.0622289 45.8981224,14.3868068 L45.8981224,36.5880337 C45.8981224,37.2639959 45.6272165,37.8526194 45.1872199,38.2444974 C45.1658415,38.2651966 45.1658415,38.2651966 45.1535773,38.2765341 C45.1533669,38.2766003 45.1589951,38.2710158 45.1735564,38.2565677 Z M43.7818968,36.8208468 C43.7852797,36.8176788 43.7887365,36.8145164 43.7936166,36.8100521 L43.7972254,36.8067349 C43.7946449,36.809096 43.7946449,36.809096 43.8184391,36.787083 C43.8754217,36.7361251 43.8981224,36.6868009 43.8981224,36.5880337 L43.8981224,14.3868068 C43.8981224,14.2105529 43.6669987,14 43.3747347,14 L7.52378571,14 C7.23119486,14 7,14.2102408 7,14.3868068 L7,36.5880337 C7,36.7641066 7.23132258,36.9748406 7.52378571,36.9748406 L43.3747347,36.9748406 C43.5337398,36.9748406 43.6356296,36.9414917 43.7654667,36.8367411 C43.7689626,36.8332931 43.7717842,36.8305286 43.774259,36.8281302 C43.7748973,36.827065 43.7782577,36.8240457 43.7818968,36.8208468 Z M36.9393002,18.2133039 L38.1739811,19.7866961 L24.985809,30.1357905 L12.3654001,19.7728408 L13.6345999,18.2271592 L25.014191,27.5712407 L36.9393002,18.2133039 Z" id="Combined-Shape" fill="#000000" fill-rule="nonzero"></path>
    </g>
</svg>
